public/logos/cloudflare.svg

<svg width="256" height="256" viewBox="0 0 256 256" fill="none" xmlns="http://www.w3.org/2000/svg">
<path d="M226.524 126.486L198.267 119.926L193.221 117.908L63.5421 118.917V181.486L226.524 181.99V126.486Z" fill="white"/>
<path d="M173.543 175.936C174.355 173.787 174.641 171.475 174.378 169.193C174.115 166.91 173.309 164.724 172.029 162.817C170.715 161.24 169.102 159.939 167.284 158.986C165.466 158.034 163.478 157.449 161.433 157.266L73.635 156.257C73.1304 156.257 72.6258 155.752 72.1213 155.752C72.0038 155.664 71.9084 155.55 71.8427 155.419C71.777 155.287 71.7428 155.142 71.7428 154.995C71.7428 154.849 71.777 154.704 71.8427 154.572C71.9084 154.441 72.0038 154.327 72.1213 154.239C72.6258 153.229 73.1304 152.725 74.1396 152.725L162.442 151.716C168.048 151.093 173.387 148.989 177.91 145.619C182.433 142.249 185.977 137.735 188.176 132.541L193.222 119.422C193.222 118.917 193.727 118.413 193.222 117.908C190.479 105.689 183.822 94.6999 174.263 86.6098C164.703 78.5197 152.764 73.7713 140.26 73.0862C127.756 72.401 115.369 75.8165 104.983 82.8137C94.5974 89.8108 86.7795 100.007 82.7176 111.853C77.4444 108.087 71.0125 106.301 64.5524 106.807C58.6239 107.468 53.0966 110.126 48.8785 114.344C44.6604 118.562 42.0025 124.09 41.3415 130.018C41.0055 133.053 41.176 136.122 41.846 139.101C32.2535 139.366 23.143 143.363 16.4524 150.242C9.76175 157.122 6.01905 166.34 6.02038 175.936C5.93758 177.8 6.1073 179.667 6.52496 181.486C6.54813 181.88 6.71507 182.252 6.99409 182.531C7.27311 182.81 7.64483 182.977 8.03874 183H170.011C171.02 183 172.029 182.495 172.029 181.486L173.543 175.936Z" fill="#F48120"/>
<path d="M201.294 119.422H198.771C198.266 119.422 197.762 119.926 197.257 120.431L193.725 132.541C192.913 134.69 192.627 137.002 192.89 139.284C193.154 141.566 193.959 143.752 195.239 145.66C196.553 147.236 198.166 148.538 199.984 149.49C201.802 150.443 203.791 151.027 205.835 151.211L224.505 152.22C225.009 152.22 225.514 152.724 226.018 152.724C226.136 152.812 226.231 152.927 226.297 153.058C226.363 153.19 226.397 153.334 226.397 153.481C226.397 153.628 226.363 153.773 226.297 153.904C226.231 154.036 226.136 154.15 226.018 154.238C225.514 155.247 225.009 155.752 224 155.752L204.826 156.761C199.22 157.383 193.881 159.487 189.358 162.857C184.835 166.228 181.292 170.742 179.092 175.935L178.083 180.477C177.578 180.981 178.083 181.99 179.092 181.99H245.697C245.903 182.02 246.113 182.001 246.31 181.935C246.507 181.869 246.686 181.759 246.833 181.612C246.98 181.465 247.09 181.286 247.156 181.089C247.222 180.892 247.241 180.682 247.211 180.477C248.412 176.201 249.09 171.796 249.229 167.357C249.149 154.669 244.073 142.522 235.101 133.55C226.129 124.578 213.982 119.502 201.294 119.422" fill="#FAAD3F"/>
</svg>

<svg width="256" height="256" viewBox="0 0 256 256" fill="none" xmlns="http://www.w3.org/2000/svg">
  <path d="m226.524 126.486-28.257-6.56-5.046-2.018-129.679 1.009v62.569l162.982.504v-55.504Z" fill="#fff"/>
  <path d="M173.543 175.936a14.41 14.41 0 0 0-1.514-13.119 15.606 15.606 0 0 0-10.596-5.551l-87.798-1.009c-.505 0-1.01-.505-1.514-.505a.946.946 0 0 1 0-1.513c.505-1.01 1.01-1.514 2.019-1.514l88.302-1.009a31.76 31.76 0 0 0 25.734-19.175l5.046-13.119c0-.505.505-1.009 0-1.514a57.503 57.503 0 0 0-110.504-6.055 27.553 27.553 0 0 0-18.166-5.046 26.286 26.286 0 0 0-23.21 23.211 27.567 27.567 0 0 0 .504 9.083A36.843 36.843 0 0 0 6.02 175.936a20.697 20.697 0 0 0 .505 5.55A1.612 1.612 0 0 0 8.039 183H170.01c1.009 0 2.018-.505 2.018-1.514l1.514-5.55Z" fill="#F48120"/>
  <path d="M201.294 119.422h-2.523c-.505 0-1.009.504-1.514 1.009l-3.532 12.11a14.41 14.41 0 0 0 1.514 13.119 15.603 15.603 0 0 0 10.596 5.551l18.67 1.009c.504 0 1.009.504 1.513.504a.948.948 0 0 1 .279 1.18.94.94 0 0 1-.279.334c-.504 1.009-1.009 1.514-2.018 1.514l-19.174 1.009a31.749 31.749 0 0 0-25.734 19.174l-1.009 4.542c-.505.504 0 1.513 1.009 1.513h66.605a1.328 1.328 0 0 0 1.136-.378 1.341 1.341 0 0 0 .378-1.135 54.868 54.868 0 0 0 2.018-13.12 48.242 48.242 0 0 0-47.935-47.935" fill="#FAAD3F"/>
</svg>
